X: 151984
T: Out Beyond the Moor HP
T: Fraoch na n-A\'e
S: "Roche Collection of Traditional Irish Music" [III/63/179]
L: 1/8
M: 4/4
R: hornpipe
K: Am
ed | c2 A2 A2 GA | dcAG AGAc | defe dcAG | AGAc Acde |
fdgf egfe | dcde abag | fede dcAG | A2 A2 A2 :|
ef | g2 g2 gede | gfga gede | a2 ab ageg | agab ageg |
fagf egfe | dcde abag | fede cdAG | A2 A2 A2 :|
